app/assets/images/heroicons/outline/document-currency-euro.svg

<svg width="24" height="24" viewBox="0 0 24 24" fill="none" xmlns="http://www.w3.org/2000/svg">
<path d="M19.5 14.25V11.625C19.5 9.76104 17.989 8.25 16.125 8.25H14.625C14.0037 8.25 13.5 7.74632 13.5 7.125V5.625C13.5 3.76104 11.989 2.25 10.125 2.25H8.25M8.25 13.875H12.75M8.25 16.125H12.75M14.8713 17.6517C13.6997 19.1161 11.8003 19.1161 10.6287 17.6517C9.45711 16.1872 9.45711 13.8128 10.6287 12.3483C11.8003 10.8839 13.6997 10.8839 14.8713 12.3483M10.5 2.25H5.625C5.00368 2.25 4.5 2.75368 4.5 3.375V20.625C4.5 21.2463 5.00368 21.75 5.625 21.75H18.375C18.9963 21.75 19.5 21.2463 19.5 20.625V11.25C19.5 6.27944 15.4706 2.25 10.5 2.25Z" stroke="black" stroke-width="1.5" stroke-linecap="round" stroke-linejoin="round"/>
</svg>

<svg xmlns="http://www.w3.org/2000/svg" fill="none" viewBox="0 0 24 24" stroke-width="1.5" stroke="currentColor" aria-hidden="true" data-slot="icon">
  <path stroke-linecap="round" stroke-linejoin="round" d="M19.5 14.25v-2.625a3.375 3.375 0 0 0-3.375-3.375h-1.5A1.125 1.125 0 0 1 13.5 7.125v-1.5a3.375 3.375 0 0 0-3.375-3.375H8.25m0 11.625h4.5m-4.5 2.25h4.5m2.121 1.527c-1.171 1.464-3.07 1.464-4.242 0-1.172-1.465-1.172-3.84 0-5.304 1.171-1.464 3.07-1.464 4.242 0M10.5 2.25H5.625c-.621 0-1.125.504-1.125 1.125v17.25c0 .621.504 1.125 1.125 1.125h12.75c.621 0 1.125-.504 1.125-1.125V11.25a9 9 0 0 0-9-9Z"/>
</svg>
